assets/icons/icon_folder.svg

<svg width="30" height="30" viewBox="0 0 30 30" fill="none"
  xmlns="http://www.w3.org/2000/svg">
  
  <path d="M6.00001 7.5H1.17001C0.615009 7.5 0.0600094 7.98 0.135009 8.76L2.47501 23.745C2.47501 23.745 5.25001 12.705 5.79001 10.05C5.95501 9.255 6.70501 9 7.26001 9H15C15 9 13.95 5.88 13.845 5.535C13.665 4.875 13.335 4.5 12.675 4.5H7.71001C7.17001 4.5 6.66001 4.845 6.51001 5.46C6.37501 6.06 6.00001 7.5 6.00001 7.5ZM13.32 7.5H7.32001C7.32001 7.5 7.95001 6 8.62501 6H11.82C12.54 6 13.32 7.5 13.32 7.5ZM4.00501 24.375C3.54001 25.08 2.86501 25.5 2.11501 25.5H25.71C26.52 25.5 27.09 25.035 27.255 24.255C27.915 20.97 29.775 11.595 29.775 11.595C29.88 10.845 29.325 10.5 28.845 10.5H24V8.295C24 8.055 23.61 7.5 23.01 7.5H17.37C16.59 7.5 16.065 8.37 16.065 8.37L15 10.5H8.38501C7.90501 10.5 7.44001 10.785 7.35001 11.25C7.35001 11.25 4.96501 21.3 4.77001 22.245C4.66501 22.8 4.44001 23.73 4.00501 24.375ZM23.07 10.5H16.5C16.5 10.5 17.37 9 18.195 9H21.63C22.695 9 23.07 10.5 23.07 10.5Z" fill="#6366F1"/>
  <path fill-rule="evenodd" clip-rule="evenodd" d="M1.16905 7.5H5.99681L6.00001 7.5C6.00001 7.5 6.37501 6.06 6.51001 5.46C6.66001 4.845 7.17001 4.5 7.71001 4.5H12.6718C13.3318 4.5 13.6618 4.875 13.8418 5.535C13.9468 5.88 14.9968 9 14.9968 9L7.26001 9C7.25957 9 7.25913 9 7.2587 9H7.25681C6.70181 9 5.95181 9.255 5.78681 10.05C5.25517 12.6639 2.55719 23.4052 2.47378 23.7371L0.135009 8.76C0.0600526 7.98045 0.614371 7.50055 1.16905 7.5ZM7.32001 7.5H13.32C13.32 7.5 12.54 6 11.82 6H8.62501C7.95001 6 7.32001 7.5 7.32001 7.5Z" fill="#D6D1D5"/>
  <path fill-rule="evenodd" clip-rule="evenodd" d="M1.16905 7.5H5.99681L6.00001 7.5C6.00001 7.5 6.37501 6.06 6.51001 5.46C6.66001 4.845 7.17001 4.5 7.71001 4.5H12.6718C13.3318 4.5 13.6618 4.875 13.8418 5.535C13.9468 5.88 14.9968 9 14.9968 9L7.26001 9C7.25957 9 7.25913 9 7.2587 9H7.25681C6.70181 9 5.95181 9.255 5.78681 10.05C5.25517 12.6639 2.55719 23.4052 2.47378 23.7371L0.135009 8.76C0.0600526 7.98045 0.614371 7.50055 1.16905 7.5ZM7.32001 7.5H13.32C13.32 7.5 12.54 6 11.82 6H8.62501C7.95001 6 7.32001 7.5 7.32001 7.5Z" fill="#6366F1"/>
</svg>

<svg fill="none" xmlns="http://www.w3.org/2000/svg" viewBox="0 0 30 30"><path d="M6 7.5H1.17C.62 7.5.06 7.98.14 8.76l2.34 14.99s2.77-11.04 3.31-13.7C5.96 9.25 6.71 9 7.26 9H15s-1.05-3.12-1.15-3.46c-.19-.66-.51-1.04-1.17-1.04H7.7c-.54 0-1.05.34-1.2.96-.12.6-.5 2.04-.5 2.04m7.32 0h-6S7.95 6 8.62 6h3.2c.72 0 1.5 1.5 1.5 1.5M4.01 24.38a2.3 2.3 0 0 1-1.9 1.12h23.6c.81 0 1.38-.46 1.54-1.25l2.52-12.65c.11-.75-.45-1.1-.93-1.1H24V8.3c0-.25-.39-.8-.99-.8h-5.64c-.78 0-1.3.87-1.3.87L15 10.5H8.39c-.48 0-.95.29-1.04.75 0 0-2.38 10.05-2.58 11-.1.55-.33 1.48-.76 2.13M23.07 10.5H16.5S17.37 9 18.2 9h3.43c1.07 0 1.44 1.5 1.44 1.5" fill="#6366F1"/><path fill-rule="evenodd" clip-rule="evenodd" d="M1.17 7.5H6s.38-1.44.51-2.04c.15-.62.66-.96 1.2-.96h4.96c.66 0 1 .38 1.17 1.04C13.94 5.88 15 9 15 9H7.26c-.56 0-1.3.26-1.47 1.05a643 643 0 0 1-3.32 13.69L.14 8.76C.06 7.98.6 7.5 1.17 7.5m6.15 0h6S12.54 6 11.82 6h-3.2c-.67 0-1.3 1.5-1.3 1.5" fill="#D6D1D5"/><path fill-rule="evenodd" clip-rule="evenodd" d="M1.17 7.5H6s.38-1.44.51-2.04c.15-.62.66-.96 1.2-.96h4.96c.66 0 1 .38 1.17 1.04C13.94 5.88 15 9 15 9H7.26c-.56 0-1.3.26-1.47 1.05a643 643 0 0 1-3.32 13.69L.14 8.76C.06 7.98.6 7.5 1.17 7.5m6.15 0h6S12.54 6 11.82 6h-3.2c-.67 0-1.3 1.5-1.3 1.5" fill="#6366F1"/></svg>
